{
    "compressionlevel": -1,
    "height": 10,
    "infinite": false,
    "orientation": "orthogonal",
    "renderorder": "right-down",
    "tileheight": 16,
    "tilewidth": 16,
    "tiledversion": "1.10.2",
    "type": "map",
    "version": "1.10",
    "width": 10,
    "tilesets": [
        {
            "columns": 10,
            "firstgid": 1,
            "image": "tileset.png",
            "imageheight": 16,
            "imagewidth": 160,
            "margin": 0,
            "name": "terrain",
            "spacing": 0,
            "tilecount": 10,
            "tileheight": 16,
            "tilewidth": 16,
            "tiles": [
                {"id": 0, "type": "plains"},
                {"id": 1, "type": "hills"},
                {"id": 2, "type": "road"},
                {"id": 3, "type": "water"},
                {"id": 4, "type": "bridge"},
                {"id": 5, "type": "mountain"},
                {"id": 6, "type": "city"},
                {"id": 7, "type": "swamp"},
                {"id": 8, "type": "forest"},
                {"id": 9, "type": "fortress"}
            ]
        }
    ],
    "layers": [
        {
            "data": [
                 1,  3,  2, 10, 10,  2,  1,  7,  1,  1,
                 2,  3,  1, 10, 10,  2,  1,  3,  3,  1,
                 1,  3,  3,  3,  3,  3,  3,  3,  2,  1,
                 7,  3,  1,  1,  1,  1,  1,  1,  9,  9,
                 1,  3,  1,  9,  9,  1,  1,  1,  9,  9,
                 2,  1,  1,  9,  9,  6,  6,  5,  6,  6,
                 2,  1,  4,  4,  4,  4,  4,  5,  4,  4,
                 1,  1,  4,  4,  4,  4,  4,  4,  4,  4,
                 8,  8,  2,  1,  1,  1,  1,  1,  1,  1,
                 8,  8,  1,  1,  7,  3,  3,  1,  1,  1
            ],
            "height": 10,
            "id": 1,
            "name": "terrain",
            "opacity": 1,
            "type": "tilelayer",
            "visible": true,
            "width": 10,
            "x": 0,
            "y": 0
        }
    ]
}
